static/images/upgrades/cc-placeholder.svg

<svg enable-background="new 0 0 512 512" viewBox="0 0 512 512" xmlns="http://www.w3.org/2000/svg"><g fill="#ccced0"><path d="m452 96h-392c-15.5 0-27.9 12.5-28 28v.3 263.4.3c.2 15.5 12.5 28 28 28h392c15.6 0 28-12.7 28-28.3v-263.4c0-15.6-12.4-28.3-28-28.3zm-374.9 32h357.7c6.9 0 12.1 5.1 13.1 12v20h-383.9v-20.3c1-6.8 6.3-11.7 13.1-11.7zm357.8 256h-357.8c-6.9 0-12.1-4.9-13.1-11.7v-116.3h384v116c-1 6.9-6.3 12-13.1 12z"/><path d="m96 304h192v16h-192z"/><path d="m96 336h96v16h-96z"/><path d="m352 304h64v48h-64z"/></g></svg>

<?xml version="1.0" encoding="utf-8"?>
<!-- Generator: Adobe Illustrator 18.0.0, SVG Export Plug-In . SVG Version: 6.00 Build 0)  -->
<!DOCTYPE svg PUBLIC "-//W3C//DTD SVG 1.1//EN" "http://www.w3.org/Graphics/SVG/1.1/DTD/svg11.dtd">
<svg version="1.1" id="Layer_1" xmlns="http://www.w3.org/2000/svg" xmlns:xlink="http://www.w3.org/1999/xlink" x="0px" y="0px"
	 viewBox="0 0 512 512" enable-background="new 0 0 512 512" xml:space="preserve">
<g>
	<path fill="#CCCED0" d="M452,96H60c-15.5,0-27.9,12.5-28,28l0,0v0.3v263.4v0.3l0,0c0.2,15.5,12.5,28,28,28h392
		c15.6,0,28-12.7,28-28.3l0,0V124.3l0,0C480,108.7,467.6,96,452,96z M77.1,128h357.7c6.9,0,12.1,5.1,13.1,12v20H64v-20.3
		C65,132.9,70.3,128,77.1,128z M434.9,384H77.1c-6.9,0-12.1-4.9-13.1-11.7V256h384v116C447,378.9,441.7,384,434.9,384z"/>
	<rect x="96" y="304" fill="#CCCED0" width="192" height="16"/>
	<rect x="96" y="336" fill="#CCCED0" width="96" height="16"/>
	<rect x="352" y="304" fill="#CCCED0" width="64" height="48"/>
</g>
</svg>
